X:1
T: Miss Kirsten McKay
C:Bruce Shawyer
R:Jig
Q:180
K:D
M:6/8
L:1/16
a2|f4d2 d2e2f2|e4c2 A4A2|B4G2 G2A2B2|A4F2 F4F2|G4E2 E2F2G2|F4A2 d4A2|B2A2G2 F2G2E2|D6 D4a2|
f4d2 d2e2f2|e4c2 A4A2|B4G2 G2A2B2|A4F2 F4F2|G4E2 E2F2G2|F4A2 d4A2|B2A2G2 F2G2E2|D6 D4A2|
d4f2 f2e2d2|c4e2 e4c2|B4d2 d2c2B2|A4d2 f6|B4e2 e2f2g2|A4d2 d2e2f2|g2f2e2 c2B2c2|d6 D4A2|
d4f2 f2e2d2|c4e2 e4c2|B4d2 d2c2B2|A4d2 f6|B4e2 e2f2g2|A4d2 d2e2f2|g2f2e2 c2B2c2|d6 D4||
